X:8614
T:King of the Pipers
Z: id:dc-jig-66
M:6/8
L:1/8
K:D Mixolydian
A2F B2F|A2G FED|A2F BAF|GFG GFD|!
A2F B2F|A2G FED|GAB cAF|GFG AFD:|!
dfa afd|d^cd AFA|GAB cAF|GFG AFD|!
dfa afa|geg fdA|GAB cAF|GFG AFD:|!
d2e dcA|d2e dcA|d2e dcA|GFG AFD|!
d2e dcA|d2e dcA|GAB cAF|GFG AFD:|!
def def|def e^cA|def e^cA|GFG AFD:|!
def def|def e^cA|GAB cAF|GFG AFD:|!
Ddd Dcc|DBB Dcc|Ddd Dcc|GFG AFD|!
Ddd Dcc|DBB DAA|GAB cAF|GFG AFD:|!
